X:23
T:Lichtmann 23
C:G. F. Handel
M:3/4
L:1/8
Q:"Maestoso" 1/4=92
K:D
!f!d4"_stately"A2|F2D2A2|d2def2|d6|d2ded2|
e2efe2|f2g2f2|e6|FGA2A2|BAG2F2|
EFG2G2|AGF2E2|DED2D2|G2E2F2-|FGE3D|D6|]

